48x48/apps/openlp.svg

<svg xmlns="http://www.w3.org/2000/svg" width="48" height="48" version="1.1">
 <circle style="opacity:0.2" cx="24" cy="25" r="20"/>
 <circle style="fill:#2a4986" cx="24" cy="24" r="20"/>
 <path style="opacity:0.2" d="M 14.548828,7.3923121 A 20,20 0 0 0 9.6386719,11.111062 L 37.388672,27.948953 7.6464844,13.507546 A 20,20 0 0 0 4.8847656,19.124734 L 38.287109,30.155984 4.2578125,21.964578 A 20,20 0 0 0 4,24.999734 20,20 0 0 0 4.2792969,28.298562 L 35.595703,31.404031 5.046875,31.306375 a 20,20 0 0 0 2.6289062,5.205078 L 36.179688,33.933328 9.4414062,38.693093 A 20,20 0 0 0 14.455078,42.572 l 27.375,-8.560547 a 20,20 0 0 0 1.453125,-3.78711 z"/>
 <path style="fill:#f4f4f7" d="M 14.548828 6.3925781 A 20 20 0 0 0 9.6386719 10.111328 L 37.388672 26.949219 L 7.6464844 12.507812 A 20 20 0 0 0 4.8847656 18.125 L 38.287109 29.15625 L 4.2578125 20.964844 A 20 20 0 0 0 4 24 A 20 20 0 0 0 4.2792969 27.298828 L 35.595703 30.404297 L 5.046875 30.306641 A 20 20 0 0 0 7.6757812 35.511719 L 36.179688 32.933594 L 9.4414062 37.693359 A 20 20 0 0 0 14.455078 41.572266 L 41.830078 33.011719 A 20 20 0 0 0 43.283203 29.224609 L 14.548828 6.3925781 z"/>
 <path style="opacity:0.1;fill:#f4f4f7" d="M 24,4 A 20,20 0 0 0 4,24 20,20 0 0 0 4.0215,24.582 20,20 0 0 1 24,5 20,20 0 0 1 43.979,24.418 20,20 0 0 0 44,24 20,20 0 0 0 24,4 Z"/>
</svg>

<svg xmlns="http://www.w3.org/2000/svg" width="48" height="48"><circle style="opacity:.2" cx="24" cy="25" r="20"/><circle style="fill:#2a4986" cx="24" cy="24" r="20"/><path style="opacity:.2" d="M14.549 7.392a20 20 0 0 0-4.91 3.72l27.75 16.837L7.646 13.508a20 20 0 0 0-2.761 5.617l33.402 11.031-34.03-8.191A20 20 0 0 0 4 25a20 20 0 0 0 .28 3.299l31.316 3.105-30.55-.098a20 20 0 0 0 2.63 5.205l28.504-2.578-26.739 4.76a20 20 0 0 0 5.014 3.879l27.375-8.56a20 20 0 0 0 1.453-3.788z"/><path style="fill:#f4f4f7" d="M14.549 6.393a20 20 0 0 0-4.91 3.718l27.75 16.838L7.646 12.508a20 20 0 0 0-2.761 5.617l33.402 11.031-34.03-8.191A20 20 0 0 0 4 24a20 20 0 0 0 .28 3.299l31.316 3.105-30.55-.097a20 20 0 0 0 2.63 5.205l28.504-2.578-26.739 4.76a20 20 0 0 0 5.014 3.878l27.375-8.56a20 20 0 0 0 1.453-3.787L14.55 6.393z"/><path style="opacity:.1;fill:#f4f4f7" d="M24 4A20 20 0 0 0 4 24a20 20 0 0 0 .021.582A20 20 0 0 1 24 5a20 20 0 0 1 19.979 19.418A20 20 0 0 0 44 24 20 20 0 0 0 24 4z"/></svg>
